packages/assets/static/images/icons/bold/image-broken--bold.svg

<svg width="24" height="24" viewBox="0 0 24 24" xmlns="http://www.w3.org/2000/svg">
<path d="M21.6562 10.5005C21.5117 10.3963 21.3444 10.3279 21.1682 10.301C20.992 10.2741 20.8119 10.2895 20.6428 10.3458L18.4106 11.0892C18.2556 11.141 18.1138 11.226 17.9949 11.3382C17.8761 11.4504 17.7831 11.5871 17.7225 11.7389L16.4409 14.9433L13.2366 16.2249C13.0848 16.2855 12.948 16.3784 12.8358 16.4973C12.7236 16.6161 12.6387 16.758 12.5869 16.913L11.8434 19.1452C11.7871 19.3144 11.7718 19.4945 11.7988 19.6708C11.8258 19.8471 11.8943 20.0144 11.9987 20.159C12.1031 20.3036 12.2404 20.4213 12.3992 20.5024C12.558 20.5835 12.7339 20.6257 12.9122 20.6255H20.25C20.7473 20.6255 21.2242 20.4279 21.5758 20.0763C21.9275 19.7247 22.125 19.2478 22.125 18.7505V11.4127C22.1248 11.2344 22.0821 11.0587 22.0006 10.9001C21.9191 10.7415 21.8011 10.6045 21.6562 10.5005ZM19.875 18.3755H14.4731L14.5584 18.1196L17.7262 16.853C17.8676 16.7964 17.9959 16.7117 18.1036 16.6041C18.2112 16.4964 18.2959 16.3681 18.3525 16.2267L19.6191 13.0589L19.875 12.9736V18.3755ZM20.25 3.37549H3.75C3.25272 3.37549 2.77581 3.57303 2.42417 3.92466C2.07254 4.27629 1.875 4.75321 1.875 5.25049V18.7505C1.875 19.2478 2.07254 19.7247 2.42417 20.0763C2.77581 20.4279 3.25272 20.6255 3.75 20.6255H8.95969C9.19659 20.6264 9.42773 20.5524 9.62014 20.4142C9.81256 20.276 9.95643 20.0806 10.0312 19.8558L11.5509 15.2817L14.8406 13.9692C14.9825 13.9127 15.1113 13.8278 15.2193 13.7198C15.3273 13.6118 15.4122 13.483 15.4688 13.3411L16.7812 10.0514L21.3553 8.53174C21.5801 8.45692 21.7755 8.31304 21.9137 8.12063C22.0519 7.92822 22.1259 7.69708 22.125 7.46018V5.25049C22.125 4.75321 21.9275 4.27629 21.5758 3.92466C21.2242 3.57303 20.7473 3.37549 20.25 3.37549ZM9.58125 14.078L8.14875 18.3755H4.125V16.2811L8.625 11.7811L10.2319 13.388C10.0797 13.4487 9.94268 13.5419 9.8303 13.6611C9.71792 13.7803 9.63292 13.9225 9.58125 14.078ZM19.875 6.64924L15.5775 8.08174C15.4223 8.13343 15.2803 8.21834 15.1613 8.33054C15.0423 8.44275 14.9492 8.57955 14.8884 8.73143L13.5572 12.0577L12.5053 12.4786L9.95062 9.92486C9.59901 9.57336 9.12218 9.37589 8.625 9.37589C8.12782 9.37589 7.65099 9.57336 7.29938 9.92486L4.125 13.0992V5.62549H19.875V6.64924Z"/>
</svg>

<svg viewBox="0 0 24 24" xmlns="http://www.w3.org/2000/svg" aria-hidden="true" fill="currentColor"><path d="M21.656 10.5a1.13 1.13 0 0 0-1.013-.154l-2.232.743a1.13 1.13 0 0 0-.689.65l-1.281 3.204-3.204 1.282a1.12 1.12 0 0 0-.65.688l-.744 2.232a1.125 1.125 0 0 0 1.07 1.48h7.337a1.875 1.875 0 0 0 1.875-1.875v-7.337a1.12 1.12 0 0 0-.469-.912m-1.781 7.875h-5.402l.085-.255 3.168-1.267a1.13 1.13 0 0 0 .627-.626l1.266-3.168.256-.085zm.375-15H3.75A1.875 1.875 0 0 0 1.875 5.25v13.5a1.875 1.875 0 0 0 1.875 1.875h5.21a1.125 1.125 0 0 0 1.071-.77l1.52-4.573 3.29-1.313a1.12 1.12 0 0 0 .628-.628l1.312-3.29 4.574-1.52a1.125 1.125 0 0 0 .77-1.07V5.25a1.875 1.875 0 0 0-1.875-1.876M9.581 14.078 8.15 18.375H4.125v-2.094l4.5-4.5 1.607 1.607a1.12 1.12 0 0 0-.65.69m10.294-7.429-4.297 1.433a1.13 1.13 0 0 0-.69.65l-1.33 3.326-1.053.42-2.554-2.553a1.875 1.875 0 0 0-2.652 0l-3.174 3.174V5.625h15.75z"/></svg>
